X:1
T:Guapparia
T:Guapparia
T:"Canzone di giacca"
T:R. Falvo
T:L. Bovio
T:Sunate, giuvinò, vuttate 'e mmane! Nun v'abbelite, ca stò buono 'e voce! I' mme fido 'e cantà fino a dimane E metto 'ncroce a chi mm'ha miso 'ncroce. Pecché nun va cchiù a tiempo 'o mandulino? Pecché 'a chitarra nun se fa sentì? Ma comme? Chiagne tutt' 'o cuncertino, Addò ch'avess' 'a chiagnere sul'i'. Chiagnono 'sti guagliune 'e malavita. 
T:È accumparuta 'a luna a ll'intrasatto Pe' lle dà 'o sfizio 'e mme vedè distrutto. Pe' chello che 'sta femmena mm'ha fatto, Vurria ch' 'a luna se vestesse 'e lutto. Quanno se ne venette â parta mia, Ero 'o cchiù guappo 'e vascio â Sanità. Mo, ch'aggio perzo tutt' 'a guapparia, Cacciatemmenne 'a dint' 'a suggità! Scetateve, guagliune 'e malavita!
T:Pubblico dominio
T:Pubblico dominio
T:Pubblico dominio
C:R. Falvo
Z:Pubblico dominio
%%score 1 2 3
L:1/8
Q:1/4=135
M:3/4
K:F
V:1 treble nm="Voce"
V:2 treble nm="Mandolino"
V:3 treble-8 nm="Chitarra"
V:1
 z6 | z6 | z6 | z6 | z6 | z6 | z6 |: z6 | z6 |!mf!"^Canto" A2 A A G B | A3 A G F | A6 | A6 | %13
w: |||||||||Sce\- ta- te\- ve, gua\-|gliu\- ne'e ma\- la|vi\-|ta,|
 d2 e d c B | B3 B c d | B6 | B6 | G2 G G A B | d3 d ^c c | A6 | A6 | G2 GG/A/ B G | F3 F G G | %23
w: caè 'ntus\-se\- co\- saas\- sa\-|je 'sta se\- re\-|na\-|ta||Io son\- go 'nnam\- mu\-|ra\-to 'e Mar\- ga\-|ri|ta|ch'~è 'a fem\- me\- na cchiù|bel\- la d' 'a~'Nfra\-|
 F/E/D D4- | D4 z2 ||[K:D]!mp! A2 G F E F | A3 F E F | G6 | G6 | B2 G F E G | B3 G F E | A6- | %32
w: sca\- _ _ ta.||Ll'ag\- gio pur\- ta\- to'o|ca\- po cun\- cer\-|ti\-|no|p''o sfi\- zio ~mme fà|sen\- te\- re 'e|can\-|
 A6 ||[K:F] B2 B B c d | B3 B c d | A6 | A6 | G2 GA/B/ BG | F3 F G G | FE/D/ D4- | D6 | %41
w: tà.|Mm'ag\- gio be\- vu\- to|'nu bic\- chie\- re'e|vi\-|no|pec\- ché sta\- _ not\- te'a|vo\- gl\-io 'ntus\- se\-|cà _ _ _|_|
 G2 A B !fermata!d[Q:1/4=120]"^rall." ^c | !fermata!A3!f![Q:1/4=80] G B ^c | %43
w: Sce\- ta\- te\- ve, gua\-|gliune 'e ma\- la\-|
"^a tempo"[Q:1/4=135] d6 | d6- | d2 z4 :| %46
w: vi\-|ta|_|
V:2
!f! dB/c/ dB cd | d/c/B/A/ d4 | BG/A/ BG AB | B/A/G/F/ A4 | GE/F/ GE FG | F/E/D/F/ A4 | %6
 AA/G/ FG/F/ EF/E/ |: D2 z4 | z6 |!mf! A2 AA GB | A3 A GF | A6 | A6 | d2 ed cB | B3 B cd | B6 | %16
 B6 | G2 GG AB | d3 d ^cc | A6 | A6 | G2 GG/A/ BG | F3 F GG | F/E/D D4- | D4 z2 || %25
[K:D]!mp! A2 GF EF | A3 F EF | G6 | G6 | B2 GF EG | B3 G FE | A6- | A6 ||[K:F] B2 BB cd | B3 B cd | %35
 A6 | A6 | G2 GA/B/ BG | F3 F GG | FE/D/ D4- | D6 | G2 AB !fermata!d"^rall."^c | %42
 !fermata!A3!f! G B^c |"_a tempo" d6 | d6- | d2 z4 :| %46
V:3
!mf! GG,/D/ G[Bdg] G2 | DA,/D/ A[Adf] D2 | GG,/D/ G[Bdg] G2 | DA,/D/ A[Adf] D2 | GG,/D/ G[Bdg] G2 | %5
 DA,/D/ A[Adf] D2 | AG,/E/ A[A^cg] A,2 |: DA,/D/ A[Adf] A,2 | DA,/D/ A[Adf] A,2 | %9
!mp! DA,/D/ A[Adf] A,2 | DA,/D/ A[Adf] A,2 | DA,/D/ A[Adf] A,2 | DA,/D/ A[Adf] D2 | %13
 GG,/D/ G[Bdg] D2 | GG,/D/ G[Bdg] D2 | GG,/D/ G[Bdg] D2 | GG,/D/ G[Bdg] D2 | GG,/D/ G[Bdg] D2 | %18
 [GB]4 [EG]2 | DA,/D/ A[Adf] A,2 | DA,/D/ A[Adf] D2 | GA,/D/ G[Beg] G2 | DA,/D/ A[Adf] [A,^c]2 | %23
 DA,/D/ A[Adf] A,2 | DA,/D/ A[Adf] A,2 ||[K:D]!p! DA,/D/ A[Adf] A,2 | DA,/D/ A[Adf] A,2 | %27
 DA,/D/ A[Bdg] A,2 | DA,/D/ A[Bdg] A,2 | DA,/D/ A[Bdg] A,2 | DA,/D/ A[Bdg] A,2 | %31
 DA,/D/ A[Adf] A,2 | d2 c2 =c2 ||[K:F] [GB]4 [GB]2 | [GB]6 | DA,/D/ A[Adf] A,2 | DA,/D/ A[Adf] D2 | %37
 GG,/D/ G[Beg] G2 | DA,/D/ A[Adf] [A,^c]2 | !arpeggio![DA]2 D/E/F/G/ A/B/A/G/ | %40
 F/G/F/E/ D/E/F/E/ D/C/B,/A,/ | !arpeggio![G,DG]4 !arpeggio!!fermata![G,DG]2 | %42
 !arpeggio!!fermata![DAd]4!mf! [DGB][EA^c] | DA,/D/ A[Adf] GB | DA,/D/ A[Adf] GB | %45
 [Adf]2!f! [Adf]2 z2 :| %46

